(Generated by PartKam Version 0.05)

G20 G90 G40

(Logo Profile)
G0 Z0.15
T0 M6
G17
M3
G0 X6.0276 Y11.0691
G1 Z-0.1 F30
G1 X5.2375 Y9.8943 F30
G1 X4.9585 Y9.4793
G1 X0.5551 Y2.9315
G3 X0.4747 Y2.739 I0.4435 J-0.2984
G3 X0.4641 Y2.6331 I0.5239 J-0.1059
G3 X0.474 Y2.5304 I0.5345 J0
G3 X0.5533 Y2.3374 I0.5245 J0.1026
G3 X0.7003 Y2.1895 I0.4451 J0.2956
G3 X0.8928 Y2.1091 I0.2984 J0.4435
G3 X1.1014 Y2.1084 I0.1059 J0.5238
G3 X1.2943 Y2.1877 I-0.1027 J0.5245
G3 X1.4098 Y2.2914 I-0.2958 J0.4456
G3 X1.9173 Y1.7433 I4.8746 J4.0041
G3 X2.2914 Y1.4119 I4.3671 J4.5522
G3 X2.2979 Y1.4066 I3.993 J4.8837
G3 X3.4858 Y0.6448 I3.9256 J4.8142
G3 X4.8223 Y0.1693 I2.7339 J5.5683
G3 X6.2435 Y0.0071 I1.4212 J6.147
G3 X7.2037 Y0.0802 I0 J6.3484
G3 X8.1306 Y0.2959 I-0.9374 J6.1264
G3 X9.0138 Y0.6513 I-1.8605 J5.8983
G3 X9.1682 Y0.7304 I-2.7891 J5.6348
G3 X9.6002 Y0.9818 I-2.9435 J5.5557
G3 X9.8388 Y1.1414 I-3.3755 J5.3043
G3 X9.9828 Y1.2922 I-0.307 J0.4374
G3 X10.0582 Y1.4867 I-0.451 J0.2865
G3 X10.0662 Y1.5788 I-0.5265 J0.0921
G3 X10.0534 Y1.6952 I-0.5345 J0
G3 X9.9691 Y1.8859 I-0.5221 J-0.1165
G3 X9.8183 Y2.0301 I-0.4374 J-0.3068
G3 X9.6237 Y2.1055 I-0.2867 J-0.4511
G3 X9.4152 Y2.1007 I-0.0922 J-0.5267
G3 X9.2244 Y2.0164 I0.1163 J-0.5215
G2 X8.5402 Y1.6101 I-2.9977 J4.2689
G2 X7.8085 Y1.3157 I-2.274 J4.5953
G2 X7.0401 Y1.1369 I-1.5455 J4.8997
G2 X6.2435 Y1.0763 I-0.7967 J5.2063
G2 X5.0016 Y1.2257 I0 J5.2348
G2 X3.8419 Y1.6627 I1.2195 J4.994
G2 X2.8228 Y2.3621 I2.3834 J4.565
G2 X2.0397 Y3.2231 I3.4716 J3.9441
G1 X2.5177 Y3.9339
G1 X2.7967 Y4.3488
G1 X5.267 Y8.0221
G1 X4.416 Y4.4485
G1 X4.3002 Y3.9621
G1 X3.8979 Y2.2725
G3 X3.8833 Y2.1488 I0.5197 J-0.1238
G3 X3.8867 Y2.0893 I0.5342 J0
G3 X3.9382 Y1.9129 I0.5313 J0.0596
G3 X4.0462 Y1.7645 I0.4803 J0.2361
G3 X4.1981 Y1.6613 I0.3726 J0.3849
G3 X4.2232 Y1.653 I0.0515 J0.1139
G1 X4.3914 Y1.6167
G3 X4.4178 Y1.6139 I0.0264 J0.1222
G3 X4.5431 Y1.6288 I0 J0.5348
G3 X4.6614 Y1.6726 I-0.1255 J0.5206
G3 X4.7685 Y1.745 I-0.2426 J0.4744
G3 X4.8551 Y1.841 I-0.3515 J0.4042
G1 X8.0981 Y6.4476
G3 X7.9907 Y6.0141 I10.3732 J-2.8021
G3 X7.8731 Y5.3942 I8.8428 J-1.9984
G3 X7.8153 Y4.8732 I6.1465 J-0.9456
G3 X7.8035 Y4.5288 I5.033 J-0.3444
G3 X7.8087 Y4.2985 I5.0447 J0
G3 X7.8478 Y3.9222 I3.2823 J0.15
G3 X7.8632 Y3.8347 I3.2433 J0.5263
G3 X7.9709 Y3.4383 I2.6076 J0.4959
G3 X8.0046 Y3.3488 I2.4999 J0.8922
G3 X8.2098 Y2.9663 I1.78 J0.7086
G3 X8.4179 Y2.7153 I1.5602 J1.0811
G3 X8.6601 Y2.5095 I1.2799 J1.261
G3 X8.9338 Y2.3492 I1.0677 J1.5091
G3 X9.2525 Y2.2274 I0.9284 J1.9521
G3 X9.5846 Y2.1545 I0.6884 J2.3417
G3 X9.9737 Y2.1207 I0.4764 J3.2285
G3 X10.3632 Y2.13 I0.1027 J3.8382
G3 X10.8179 Y2.1837 I-0.3996 J5.3344
G3 X10.9135 Y2.2085 I-0.0859 J0.5288
G3 X11.0028 Y2.2503 I-0.1811 J0.5031
G3 X11.0829 Y2.3078 I-0.2703 J0.4611
G3 X11.1511 Y2.3791 I-0.3507 J0.4039
G3 X11.7377 Y3.2593 I-4.9868 J3.9588
G3 X12.1611 Y4.2076 I-5.3685 J2.9654
G3 X12.4185 Y5.2137 I-5.7983 J2.0194
G3 X12.5062 Y6.2699 I-6.3119 J1.0561
G3 X12.4425 Y7.1639 I-6.3101 J0
G3 X12.2536 Y8.0348 I-6.1727 J-0.8835
G3 X11.9423 Y8.8698 I-5.9709 J-1.7506
G3 X11.9055 Y8.9488 I-5.6817 J-2.5957
G3 X11.6735 Y9.3916 I-5.6449 J-2.6747
G3 X11.5142 Y9.6532 I-5.413 J-3.1175
G3 X11.3694 Y9.8033 I-0.4496 J-0.2888
G3 X11.1781 Y9.8866 I-0.3048 J-0.439
G3 X10.9695 Y9.8902 I-0.1135 J-0.5224
G3 X10.7754 Y9.8138 I0.0951 J-0.5262
G3 X10.6253 Y9.669 I0.2887 J-0.4495
G3 X10.5421 Y9.4777 I0.4392 J-0.3049
G3 X10.5299 Y9.3641 I0.5225 J-0.1135
G3 X10.5384 Y9.269 I0.5347 J0
G3 X10.6148 Y9.075 I0.5257 J0.095
G2 X10.9696 Y8.4256 I-4.3537 J-2.7999
G2 X11.2276 Y7.7335 I-4.691 J-2.1426
G2 X11.3841 Y7.0116 I-4.9612 J-1.4541
G2 X11.4369 Y6.2699 I-5.1846 J-0.7417
G2 X11.3704 Y5.4311 I-5.3193 J0
G2 X11.1754 Y4.6318 I-5.0287 J0.8029
G2 X11.0172 Y4.2163 I-4.8188 J1.5974
G2 X10.8545 Y3.875 I-4.6606 J2.0129
G2 X10.7967 Y3.7677 I-4.6438 J2.4305
G2 X10.4409 Y3.2108 I-4.5861 J2.5378
G2 X10.2189 Y3.1923 I-0.4275 J3.7888
G2 X9.9927 Y3.1899 I-0.1404 J2.601
G2 X9.7702 Y3.209 I0.0704 J2.1332
G2 X9.5928 Y3.245 I0.1975 J1.4252
G2 X9.4256 Y3.3038 I0.3098 J1.1485
G2 X9.2947 Y3.3751 I0.3488 J0.7968
G2 X9.1806 Y3.467 I0.4308 J0.6515
G2 X9.089 Y3.5752 I0.5141 J0.5279
G2 X8.9792 Y3.7868 I0.7712 J0.5345
G2 X8.8971 Y4.1034 I1.5741 J0.577
G2 X8.8695 Y4.4198 I2.2793 J0.3582
G2 X8.8689 Y4.494 I4.0879 J0.0742
G2 X8.8842 Y4.8471 I4.0886 J0
G2 X8.9346 Y5.2491 I5.2717 J-0.457
G2 X9.0323 Y5.747 I8.1228 J-1.3363
G2 X9.1496 Y6.209 I9.7197 J-2.2216
G2 X9.3115 Y6.7459 I13.2501 J-3.703
G2 X9.6112 Y7.5928 I15.9014 J-5.1512
G2 X9.6576 Y7.712 I15.6017 J-5.9981
G2 X9.7965 Y8.0572 I21.5947 J-8.4923
G2 X10.1298 Y8.8264 I21.4557 J-8.8375
G2 X10.601 Y9.8049 I22.4763 J-10.2225
G2 X11.0691 Y10.6718 I18.1292 J-9.2281
G3 X11.1345 Y10.8634 I-0.4638 J0.2651
G3 X11.1396 Y10.9371 I-0.5296 J0.0737
G3 X11.1239 Y11.0656 I-0.5347 J0
G3 X11.0389 Y11.2493 I-0.5192 J-0.1285
G3 X10.8918 Y11.3883 I-0.434 J-0.3121
G3 X10.7035 Y11.4626 I-0.287 J-0.4512
G3 X10.501 Y11.4616 I-0.0986 J-0.525
G3 X10.3135 Y11.3854 I0.1039 J-0.5241
G3 X10.1678 Y11.2448 I0.2917 J-0.4483
G1 X10.1245 Y11.1834
G3 X9.3408 Y11.7132 I-3.9069 J-4.9339
G3 X8.367 Y12.163 I-3.0766 J-5.3822
G3 X7.3262 Y12.4389 I-2.1034 J-5.8338
G3 X6.4472 Y12.5291 I-1.0826 J-6.2245
G3 X6.2436 Y12.5323 I-0.2035 J-6.3147
G3 X5.9473 Y12.5253 I0 J-6.2833
G3 X4.9971 Y12.4075 I0.2963 J-6.2763
G3 X3.8081 Y12.0394 I1.2302 J-6.0781
G3 X2.7506 Y11.4655 I2.4379 J-5.7541
G3 X1.8173 Y10.6961 I3.5327 J-5.2354
G3 X1.0479 Y9.7628 I4.4659 J-4.466
G3 X0.474 Y8.7053 I5.1801 J-3.4955
G3 X0.1059 Y7.5162 I5.7099 J-2.4193
G3 X-0.019 Y6.2697 I6.1585 J-1.2465
G3 X0.0015 Y5.7594 I6.3532 J0
G3 X0.0382 Y5.4204 I6.2357 J0.5025
G3 X0.0627 Y5.2562 I6.199 J0.8415
G3 X0.1252 Y4.9282 I6.1492 J1.0016
G3 X0.1644 Y4.7598 I6.0868 J1.3296
G3 X0.3061 Y4.2734 I6.0437 J1.4971
G3 X0.384 Y4.1245 I0.5071 J0.1702
G3 X0.504 Y4.0073 I0.4272 J0.3176
G3 X0.651 Y3.9342 I0.3099 J0.4387
G3 X0.8128 Y3.909 I0.1618 J0.5083
G3 X0.8331 Y3.9107 I0 J0.125
G1 X0.9637 Y3.9321
G3 X0.9832 Y3.9369 I-0.0202 J0.1234
G3 X1.1642 Y4.0406 I-0.17 J0.5065
G3 X1.2917 Y4.2057 I-0.3512 J0.403
G3 X1.3463 Y4.4071 I-0.4787 J0.2379
G3 X1.3475 Y4.4436 I-0.5331 J0.0366
G3 X1.3197 Y4.6139 I-0.5344 J0
G2 X1.2023 Y5.017 I4.882 J1.6409
G2 X1.1179 Y5.4287 I5.0109 J1.2407
G2 X1.0673 Y5.8459 I5.1222 J0.8333
G2 X1.0503 Y6.2697 I5.2685 J0.4239
G2 X1.1538 Y7.3035 I5.2113 J0
G2 X1.459 Y8.2891 I5.0381 J-1.0197
G2 X1.9348 Y9.166 I4.7712 J-2.0215
G2 X2.5731 Y9.9402 I4.3432 J-2.9306
G2 X2.6382 Y10.0042 I3.7048 J-3.7048
G2 X3.0139 Y10.3339 I3.6397 J-3.7688
G2 X3.3473 Y10.5785 I3.264 J-4.0985
G2 X4.2242 Y11.0544 I2.8984 J-4.2953
G2 X5.2098 Y11.3595 I2.0053 J-4.7329
G2 X6.2436 Y11.4631 I1.0338 J-5.1078
G2 X7.1567 Y11.3829 I0 J-5.242
G2 X8.0329 Y11.1466 I-0.8953 J-5.0609
G2 X8.8512 Y10.7613 I-1.7708 J-4.823
G2 X9.5079 Y10.3075 I-2.6317 J-4.5107
G1 X5.5828 Y4.732
G1 X6.9912 Y10.6469
G3 X7.0058 Y10.7709 I-0.5195 J0.124
G3 X7.0024 Y10.8316 I-0.5341 J0
G3 X6.9498 Y11.0091 I-0.5309 J-0.0608
G3 X6.8399 Y11.158 I-0.4787 J-0.2384
G3 X6.6856 Y11.2606 I-0.3689 J-0.3875
G3 X6.5057 Y11.3042 I-0.2144 J-0.4912
G3 X6.3218 Y11.2841 I-0.0345 J-0.534
G3 X6.1558 Y11.2024 I0.1492 J-0.5132
G3 X6.0276 Y11.0691 I0.315 J-0.4311
G1 Z-0.2 F30
G1 X5.2375 Y9.8943 F30
G1 X4.9585 Y9.4793
G1 X0.5551 Y2.9315
G3 X0.4747 Y2.739 I0.4435 J-0.2984
G3 X0.4641 Y2.6331 I0.5239 J-0.1059
G3 X0.474 Y2.5304 I0.5345 J0
G3 X0.5533 Y2.3374 I0.5245 J0.1026
G3 X0.7003 Y2.1895 I0.4451 J0.2956
G3 X0.8928 Y2.1091 I0.2984 J0.4435
G3 X1.1014 Y2.1084 I0.1059 J0.5238
G3 X1.2943 Y2.1877 I-0.1027 J0.5245
G3 X1.4098 Y2.2914 I-0.2958 J0.4456
G3 X1.9173 Y1.7433 I4.8746 J4.0041
G3 X2.2914 Y1.4119 I4.3671 J4.5522
G3 X2.2979 Y1.4066 I3.993 J4.8837
G3 X3.4858 Y0.6448 I3.9256 J4.8142
G3 X4.8223 Y0.1693 I2.7339 J5.5683
G3 X6.2435 Y0.0071 I1.4212 J6.147
G3 X7.2037 Y0.0802 I0 J6.3484
G3 X8.1306 Y0.2959 I-0.9374 J6.1264
G3 X9.0138 Y0.6513 I-1.8605 J5.8983
G3 X9.1682 Y0.7304 I-2.7891 J5.6348
G3 X9.6002 Y0.9818 I-2.9435 J5.5557
G3 X9.8388 Y1.1414 I-3.3755 J5.3043
G3 X9.9828 Y1.2922 I-0.307 J0.4374
G3 X10.0582 Y1.4867 I-0.451 J0.2865
G3 X10.0662 Y1.5788 I-0.5265 J0.0921
G3 X10.0534 Y1.6952 I-0.5345 J0
G3 X9.9691 Y1.8859 I-0.5221 J-0.1165
G3 X9.8183 Y2.0301 I-0.4374 J-0.3068
G3 X9.6237 Y2.1055 I-0.2867 J-0.4511
G3 X9.4152 Y2.1007 I-0.0922 J-0.5267
G3 X9.2244 Y2.0164 I0.1163 J-0.5215
G2 X8.5402 Y1.6101 I-2.9977 J4.2689
G2 X7.8085 Y1.3157 I-2.274 J4.5953
G2 X7.0401 Y1.1369 I-1.5455 J4.8997
G2 X6.2435 Y1.0763 I-0.7967 J5.2063
G2 X5.0016 Y1.2257 I0 J5.2348
G2 X3.8419 Y1.6627 I1.2195 J4.994
G2 X2.8228 Y2.3621 I2.3834 J4.565
G2 X2.0397 Y3.2231 I3.4716 J3.9441
G1 X2.5177 Y3.9339
G1 X2.7967 Y4.3488
G1 X5.267 Y8.0221
G1 X4.416 Y4.4485
G1 X4.3002 Y3.9621
G1 X3.8979 Y2.2725
G3 X3.8833 Y2.1488 I0.5197 J-0.1238
G3 X3.8867 Y2.0893 I0.5342 J0
G3 X3.9382 Y1.9129 I0.5313 J0.0596
G3 X4.0462 Y1.7645 I0.4803 J0.2361
G3 X4.1981 Y1.6613 I0.3726 J0.3849
G3 X4.2232 Y1.653 I0.0515 J0.1139
G1 X4.3914 Y1.6167
G3 X4.4178 Y1.6139 I0.0264 J0.1222
G3 X4.5431 Y1.6288 I0 J0.5348
G3 X4.6614 Y1.6726 I-0.1255 J0.5206
G3 X4.7685 Y1.745 I-0.2426 J0.4744
G3 X4.8551 Y1.841 I-0.3515 J0.4042
G1 X8.0981 Y6.4476
G3 X7.9907 Y6.0141 I10.3732 J-2.8021
G3 X7.8731 Y5.3942 I8.8428 J-1.9984
G3 X7.8153 Y4.8732 I6.1465 J-0.9456
G3 X7.8035 Y4.5288 I5.033 J-0.3444
G3 X7.8087 Y4.2985 I5.0447 J0
G3 X7.8478 Y3.9222 I3.2823 J0.15
G3 X7.8632 Y3.8347 I3.2433 J0.5263
G3 X7.9709 Y3.4383 I2.6076 J0.4959
G3 X8.0046 Y3.3488 I2.4999 J0.8922
G3 X8.2098 Y2.9663 I1.78 J0.7086
G3 X8.4179 Y2.7153 I1.5602 J1.0811
G3 X8.6601 Y2.5095 I1.2799 J1.261
G3 X8.9338 Y2.3492 I1.0677 J1.5091
G3 X9.2525 Y2.2274 I0.9284 J1.9521
G3 X9.5846 Y2.1545 I0.6884 J2.3417
G3 X9.9737 Y2.1207 I0.4764 J3.2285
G3 X10.3632 Y2.13 I0.1027 J3.8382
G3 X10.8179 Y2.1837 I-0.3996 J5.3344
G3 X10.9135 Y2.2085 I-0.0859 J0.5288
G3 X11.0028 Y2.2503 I-0.1811 J0.5031
G3 X11.0829 Y2.3078 I-0.2703 J0.4611
G3 X11.1511 Y2.3791 I-0.3507 J0.4039
G3 X11.7377 Y3.2593 I-4.9868 J3.9588
G3 X12.1611 Y4.2076 I-5.3685 J2.9654
G3 X12.4185 Y5.2137 I-5.7983 J2.0194
G3 X12.5062 Y6.2699 I-6.3119 J1.0561
G3 X12.4425 Y7.1639 I-6.3101 J0
G3 X12.2536 Y8.0348 I-6.1727 J-0.8835
G3 X11.9423 Y8.8698 I-5.9709 J-1.7506
G3 X11.9055 Y8.9488 I-5.6817 J-2.5957
G3 X11.6735 Y9.3916 I-5.6449 J-2.6747
G3 X11.5142 Y9.6532 I-5.413 J-3.1175
G3 X11.3694 Y9.8033 I-0.4496 J-0.2888
G3 X11.1781 Y9.8866 I-0.3048 J-0.439
G3 X10.9695 Y9.8902 I-0.1135 J-0.5224
G3 X10.7754 Y9.8138 I0.0951 J-0.5262
G3 X10.6253 Y9.669 I0.2887 J-0.4495
G3 X10.5421 Y9.4777 I0.4392 J-0.3049
G3 X10.5299 Y9.3641 I0.5225 J-0.1135
G3 X10.5384 Y9.269 I0.5347 J0
G3 X10.6148 Y9.075 I0.5257 J0.095
G2 X10.9696 Y8.4256 I-4.3537 J-2.7999
G2 X11.2276 Y7.7335 I-4.691 J-2.1426
G2 X11.3841 Y7.0116 I-4.9612 J-1.4541
G2 X11.4369 Y6.2699 I-5.1846 J-0.7417
G2 X11.3704 Y5.4311 I-5.3193 J0
G2 X11.1754 Y4.6318 I-5.0287 J0.8029
G2 X11.0172 Y4.2163 I-4.8188 J1.5974
G2 X10.8545 Y3.875 I-4.6606 J2.0129
G2 X10.7967 Y3.7677 I-4.6438 J2.4305
G2 X10.4409 Y3.2108 I-4.5861 J2.5378
G2 X10.2189 Y3.1923 I-0.4275 J3.7888
G2 X9.9927 Y3.1899 I-0.1404 J2.601
G2 X9.7702 Y3.209 I0.0704 J2.1332
G2 X9.5928 Y3.245 I0.1975 J1.4252
G2 X9.4256 Y3.3038 I0.3098 J1.1485
G2 X9.2947 Y3.3751 I0.3488 J0.7968
G2 X9.1806 Y3.467 I0.4308 J0.6515
G2 X9.089 Y3.5752 I0.5141 J0.5279
G2 X8.9792 Y3.7868 I0.7712 J0.5345
G2 X8.8971 Y4.1034 I1.5741 J0.577
G2 X8.8695 Y4.4198 I2.2793 J0.3582
G2 X8.8689 Y4.494 I4.0879 J0.0742
G2 X8.8842 Y4.8471 I4.0886 J0
G2 X8.9346 Y5.2491 I5.2717 J-0.457
G2 X9.0323 Y5.747 I8.1228 J-1.3363
G2 X9.1496 Y6.209 I9.7197 J-2.2216
G2 X9.3115 Y6.7459 I13.2501 J-3.703
G2 X9.6112 Y7.5928 I15.9014 J-5.1512
G2 X9.6576 Y7.712 I15.6017 J-5.9981
G2 X9.7965 Y8.0572 I21.5947 J-8.4923
G2 X10.1298 Y8.8264 I21.4557 J-8.8375
G2 X10.601 Y9.8049 I22.4763 J-10.2225
G2 X11.0691 Y10.6718 I18.1292 J-9.2281
G3 X11.1345 Y10.8634 I-0.4638 J0.2651
G3 X11.1396 Y10.9371 I-0.5296 J0.0737
G3 X11.1239 Y11.0656 I-0.5347 J0
G3 X11.0389 Y11.2493 I-0.5192 J-0.1285
G3 X10.8918 Y11.3883 I-0.434 J-0.3121
G3 X10.7035 Y11.4626 I-0.287 J-0.4512
G3 X10.501 Y11.4616 I-0.0986 J-0.525
G3 X10.3135 Y11.3854 I0.1039 J-0.5241
G3 X10.1678 Y11.2448 I0.2917 J-0.4483
G1 X10.1245 Y11.1834
G3 X9.3408 Y11.7132 I-3.9069 J-4.9339
G3 X8.367 Y12.163 I-3.0766 J-5.3822
G3 X7.3262 Y12.4389 I-2.1034 J-5.8338
G3 X6.4472 Y12.5291 I-1.0826 J-6.2245
G3 X6.2436 Y12.5323 I-0.2035 J-6.3147
G3 X5.9473 Y12.5253 I0 J-6.2833
G3 X4.9971 Y12.4075 I0.2963 J-6.2763
G3 X3.8081 Y12.0394 I1.2302 J-6.0781
G3 X2.7506 Y11.4655 I2.4379 J-5.7541
G3 X1.8173 Y10.6961 I3.5327 J-5.2354
G3 X1.0479 Y9.7628 I4.4659 J-4.466
G3 X0.474 Y8.7053 I5.1801 J-3.4955
G3 X0.1059 Y7.5162 I5.7099 J-2.4193
G3 X-0.019 Y6.2697 I6.1585 J-1.2465
G3 X0.0015 Y5.7594 I6.3532 J0
G3 X0.0382 Y5.4204 I6.2357 J0.5025
G3 X0.0627 Y5.2562 I6.199 J0.8415
G3 X0.1252 Y4.9282 I6.1492 J1.0016
G3 X0.1644 Y4.7598 I6.0868 J1.3296
G3 X0.3061 Y4.2734 I6.0437 J1.4971
G3 X0.384 Y4.1245 I0.5071 J0.1702
G3 X0.504 Y4.0073 I0.4272 J0.3176
G3 X0.651 Y3.9342 I0.3099 J0.4387
G3 X0.8128 Y3.909 I0.1618 J0.5083
G3 X0.8331 Y3.9107 I0 J0.125
G1 X0.9637 Y3.9321
G3 X0.9832 Y3.9369 I-0.0202 J0.1234
G3 X1.1642 Y4.0406 I-0.17 J0.5065
G3 X1.2917 Y4.2057 I-0.3512 J0.403
G3 X1.3463 Y4.4071 I-0.4787 J0.2379
G3 X1.3475 Y4.4436 I-0.5331 J0.0366
G3 X1.3197 Y4.6139 I-0.5344 J0
G2 X1.2023 Y5.017 I4.882 J1.6409
G2 X1.1179 Y5.4287 I5.0109 J1.2407
G2 X1.0673 Y5.8459 I5.1222 J0.8333
G2 X1.0503 Y6.2697 I5.2685 J0.4239
G2 X1.1538 Y7.3035 I5.2113 J0
G2 X1.459 Y8.2891 I5.0381 J-1.0197
G2 X1.9348 Y9.166 I4.7712 J-2.0215
G2 X2.5731 Y9.9402 I4.3432 J-2.9306
G2 X2.6382 Y10.0042 I3.7048 J-3.7048
G2 X3.0139 Y10.3339 I3.6397 J-3.7688
G2 X3.3473 Y10.5785 I3.264 J-4.0985
G2 X4.2242 Y11.0544 I2.8984 J-4.2953
G2 X5.2098 Y11.3595 I2.0053 J-4.7329
G2 X6.2436 Y11.4631 I1.0338 J-5.1078
G2 X7.1567 Y11.3829 I0 J-5.242
G2 X8.0329 Y11.1466 I-0.8953 J-5.0609
G2 X8.8512 Y10.7613 I-1.7708 J-4.823
G2 X9.5079 Y10.3075 I-2.6317 J-4.5107
G1 X5.5828 Y4.732
G1 X6.9912 Y10.6469
G3 X7.0058 Y10.7709 I-0.5195 J0.124
G3 X7.0024 Y10.8316 I-0.5341 J0
G3 X6.9498 Y11.0091 I-0.5309 J-0.0608
G3 X6.8399 Y11.158 I-0.4787 J-0.2384
G3 X6.6856 Y11.2606 I-0.3689 J-0.3875
G3 X6.5057 Y11.3042 I-0.2144 J-0.4912
G3 X6.3218 Y11.2841 I-0.0345 J-0.534
G3 X6.1558 Y11.2024 I0.1492 J-0.5132
G3 X6.0276 Y11.0691 I0.315 J-0.4311
G1 Z-0.3 F30
G1 X5.2375 Y9.8943 F30
G1 Z-0.25 F30
G1 X4.9585 Y9.4793 F30
G1 Z-0.3 F30
G1 X0.5551 Y2.9315 F30
G3 X0.4747 Y2.739 I0.4435 J-0.2984
G3 X0.4641 Y2.6331 I0.5239 J-0.1059
G3 X0.474 Y2.5304 I0.5345 J0
G3 X0.5533 Y2.3374 I0.5245 J0.1026
G3 X0.7003 Y2.1895 I0.4451 J0.2956
G3 X0.8928 Y2.1091 I0.2984 J0.4435
G3 X1.1014 Y2.1084 I0.1059 J0.5238
G3 X1.2943 Y2.1877 I-0.1027 J0.5245
G3 X1.4098 Y2.2914 I-0.2958 J0.4456
G3 X1.9173 Y1.7433 I4.8746 J4.0041
G1 Z-0.25 F30
G3 X2.2914 Y1.4119 I4.3671 J4.5522 F30
G1 Z-0.3 F30
G3 X2.2979 Y1.4066 I3.993 J4.8837 F30
G3 X3.4858 Y0.6448 I3.9256 J4.8142
G3 X4.8223 Y0.1693 I2.7339 J5.5683
G3 X6.2435 Y0.0071 I1.4212 J6.147
G3 X7.2037 Y0.0802 I0 J6.3484
G3 X8.1306 Y0.2959 I-0.9374 J6.1264
G3 X9.0138 Y0.6513 I-1.8605 J5.8983
G3 X9.1682 Y0.7304 I-2.7891 J5.6348
G1 Z-0.25 F30
G3 X9.6002 Y0.9818 I-2.9435 J5.5557 F30
G1 Z-0.3 F30
G3 X9.8388 Y1.1414 I-3.3755 J5.3043 F30
G3 X9.9828 Y1.2922 I-0.307 J0.4374
G3 X10.0582 Y1.4867 I-0.451 J0.2865
G3 X10.0662 Y1.5788 I-0.5265 J0.0921
G3 X10.0534 Y1.6952 I-0.5345 J0
G3 X9.9691 Y1.8859 I-0.5221 J-0.1165
G3 X9.8183 Y2.0301 I-0.4374 J-0.3068
G3 X9.6237 Y2.1055 I-0.2867 J-0.4511
G3 X9.4152 Y2.1007 I-0.0922 J-0.5267
G3 X9.2244 Y2.0164 I0.1163 J-0.5215
G2 X8.5402 Y1.6101 I-2.9977 J4.2689
G2 X7.8085 Y1.3157 I-2.274 J4.5953
G2 X7.0401 Y1.1369 I-1.5455 J4.8997
G2 X6.2435 Y1.0763 I-0.7967 J5.2063
G2 X5.0016 Y1.2257 I0 J5.2348
G2 X3.8419 Y1.6627 I1.2195 J4.994
G2 X2.8228 Y2.3621 I2.3834 J4.565
G2 X2.0397 Y3.2231 I3.4716 J3.9441
G1 X2.5177 Y3.9339
G1 Z-0.25 F30
G1 X2.7967 Y4.3488 F30
G1 Z-0.3 F30
G1 X5.267 Y8.0221 F30
G1 X4.416 Y4.4485
G1 Z-0.25 F30
G1 X4.3002 Y3.9621 F30
G1 Z-0.3 F30
G1 X3.8979 Y2.2725 F30
G3 X3.8833 Y2.1488 I0.5197 J-0.1238
G3 X3.8867 Y2.0893 I0.5342 J0
G3 X3.9382 Y1.9129 I0.5313 J0.0596
G3 X4.0462 Y1.7645 I0.4803 J0.2361
G3 X4.1981 Y1.6613 I0.3726 J0.3849
G3 X4.2232 Y1.653 I0.0515 J0.1139
G1 X4.3914 Y1.6167
G3 X4.4178 Y1.6139 I0.0264 J0.1222
G3 X4.5431 Y1.6288 I0 J0.5348
G3 X4.6614 Y1.6726 I-0.1255 J0.5206
G3 X4.7685 Y1.745 I-0.2426 J0.4744
G3 X4.8551 Y1.841 I-0.3515 J0.4042
G1 X8.0981 Y6.4476
G3 X7.9907 Y6.0141 I10.3732 J-2.8021
G3 X7.8731 Y5.3942 I8.8428 J-1.9984
G3 X7.8153 Y4.8732 I6.1465 J-0.9456
G3 X7.8035 Y4.5288 I5.033 J-0.3444
G3 X7.8087 Y4.2985 I5.0447 J0
G3 X7.8478 Y3.9222 I3.2823 J0.15
G1 Z-0.25 F30
G3 X7.8632 Y3.8347 I3.2433 J0.5263 F30
G3 X7.9709 Y3.4383 I2.6076 J0.4959
G1 Z-0.3 F30
G3 X8.0046 Y3.3488 I2.4999 J0.8922 F30
G3 X8.2098 Y2.9663 I1.78 J0.7086
G3 X8.4179 Y2.7153 I1.5602 J1.0811
G3 X8.6601 Y2.5095 I1.2799 J1.261
G3 X8.9338 Y2.3492 I1.0677 J1.5091
G3 X9.2525 Y2.2274 I0.9284 J1.9521
G3 X9.5846 Y2.1545 I0.6884 J2.3417
G3 X9.9737 Y2.1207 I0.4764 J3.2285
G3 X10.3632 Y2.13 I0.1027 J3.8382
G3 X10.8179 Y2.1837 I-0.3996 J5.3344
G3 X10.9135 Y2.2085 I-0.0859 J0.5288
G3 X11.0028 Y2.2503 I-0.1811 J0.5031
G3 X11.0829 Y2.3078 I-0.2703 J0.4611
G3 X11.1511 Y2.3791 I-0.3507 J0.4039
G3 X11.7377 Y3.2593 I-4.9868 J3.9588
G3 X12.1611 Y4.2076 I-5.3685 J2.9654
G3 X12.4185 Y5.2137 I-5.7983 J2.0194
G3 X12.5062 Y6.2699 I-6.3119 J1.0561
G3 X12.4425 Y7.1639 I-6.3101 J0
G3 X12.2536 Y8.0348 I-6.1727 J-0.8835
G3 X11.9423 Y8.8698 I-5.9709 J-1.7506
G3 X11.9055 Y8.9488 I-5.6817 J-2.5957
G1 Z-0.25 F30
G3 X11.6735 Y9.3916 I-5.6449 J-2.6747 F30
G1 Z-0.3 F30
G3 X11.5142 Y9.6532 I-5.413 J-3.1175 F30
G3 X11.3694 Y9.8033 I-0.4496 J-0.2888
G3 X11.1781 Y9.8866 I-0.3048 J-0.439
G3 X10.9695 Y9.8902 I-0.1135 J-0.5224
G3 X10.7754 Y9.8138 I0.0951 J-0.5262
G3 X10.6253 Y9.669 I0.2887 J-0.4495
G3 X10.5421 Y9.4777 I0.4392 J-0.3049
G3 X10.5299 Y9.3641 I0.5225 J-0.1135
G3 X10.5384 Y9.269 I0.5347 J0
G3 X10.6148 Y9.075 I0.5257 J0.095
G2 X10.9696 Y8.4256 I-4.3537 J-2.7999
G2 X11.2276 Y7.7335 I-4.691 J-2.1426
G2 X11.3841 Y7.0116 I-4.9612 J-1.4541
G2 X11.4369 Y6.2699 I-5.1846 J-0.7417
G2 X11.3704 Y5.4311 I-5.3193 J0
G2 X11.1754 Y4.6318 I-5.0287 J0.8029
G2 X11.0172 Y4.2163 I-4.8188 J1.5974
G1 Z-0.25 F30
G2 X10.8545 Y3.875 I-4.6606 J2.0129 F30
G2 X10.7967 Y3.7677 I-4.6438 J2.4305
G1 Z-0.3 F30
G2 X10.4409 Y3.2108 I-4.5861 J2.5378 F30
G2 X10.2189 Y3.1923 I-0.4275 J3.7888
G2 X9.9927 Y3.1899 I-0.1404 J2.601
G2 X9.7702 Y3.209 I0.0704 J2.1332
G2 X9.5928 Y3.245 I0.1975 J1.4252
G2 X9.4256 Y3.3038 I0.3098 J1.1485
G2 X9.2947 Y3.3751 I0.3488 J0.7968
G2 X9.1806 Y3.467 I0.4308 J0.6515
G2 X9.089 Y3.5752 I0.5141 J0.5279
G2 X8.9792 Y3.7868 I0.7712 J0.5345
G2 X8.8971 Y4.1034 I1.5741 J0.577
G2 X8.8695 Y4.4198 I2.2793 J0.3582
G2 X8.8689 Y4.494 I4.0879 J0.0742
G2 X8.8842 Y4.8471 I4.0886 J0
G2 X8.9346 Y5.2491 I5.2717 J-0.457
G2 X9.0323 Y5.747 I8.1228 J-1.3363
G2 X9.1496 Y6.209 I9.7197 J-2.2216
G2 X9.3115 Y6.7459 I13.2501 J-3.703
G2 X9.6112 Y7.5928 I15.9014 J-5.1512
G1 Z-0.25 F30
G2 X9.6576 Y7.712 I15.6017 J-5.9981 F30
G2 X9.7965 Y8.0572 I21.5947 J-8.4923
G1 Z-0.3 F30
G2 X10.1298 Y8.8264 I21.4557 J-8.8375 F30
G2 X10.601 Y9.8049 I22.4763 J-10.2225
G2 X11.0691 Y10.6718 I18.1292 J-9.2281
G3 X11.1345 Y10.8634 I-0.4638 J0.2651
G3 X11.1396 Y10.9371 I-0.5296 J0.0737
G3 X11.1239 Y11.0656 I-0.5347 J0
G3 X11.0389 Y11.2493 I-0.5192 J-0.1285
G3 X10.8918 Y11.3883 I-0.434 J-0.3121
G3 X10.7035 Y11.4626 I-0.287 J-0.4512
G3 X10.501 Y11.4616 I-0.0986 J-0.525
G3 X10.3135 Y11.3854 I0.1039 J-0.5241
G3 X10.1678 Y11.2448 I0.2917 J-0.4483
G1 X10.1245 Y11.1834
G3 X9.3408 Y11.7132 I-3.9069 J-4.9339
G3 X8.367 Y12.163 I-3.0766 J-5.3822
G3 X7.3262 Y12.4389 I-2.1034 J-5.8338
G3 X6.4472 Y12.5291 I-1.0826 J-6.2245
G1 Z-0.25 F30
G3 X6.2436 Y12.5323 I-0.2035 J-6.3147 F30
G3 X5.9473 Y12.5253 I0 J-6.2833
G1 Z-0.3 F30
G3 X4.9971 Y12.4075 I0.2963 J-6.2763 F30
G3 X3.8081 Y12.0394 I1.2302 J-6.0781
G3 X2.7506 Y11.4655 I2.4379 J-5.7541
G3 X1.8173 Y10.6961 I3.5327 J-5.2354
G3 X1.0479 Y9.7628 I4.4659 J-4.466
G3 X0.474 Y8.7053 I5.1801 J-3.4955
G3 X0.1059 Y7.5162 I5.7099 J-2.4193
G3 X-0.019 Y6.2697 I6.1585 J-1.2465
G3 X0.0015 Y5.7594 I6.3532 J0
G3 X0.0382 Y5.4204 I6.2357 J0.5025
G1 Z-0.25 F30
G3 X0.0627 Y5.2562 I6.199 J0.8415 F30
G3 X0.1252 Y4.9282 I6.1492 J1.0016
G1 Z-0.3 F30
G3 X0.1644 Y4.7598 I6.0868 J1.3296 F30
G3 X0.3061 Y4.2734 I6.0437 J1.4971
G3 X0.384 Y4.1245 I0.5071 J0.1702
G3 X0.504 Y4.0073 I0.4272 J0.3176
G3 X0.651 Y3.9342 I0.3099 J0.4387
G3 X0.8128 Y3.909 I0.1618 J0.5083
G3 X0.8331 Y3.9107 I0 J0.125
G1 X0.9637 Y3.9321
G3 X0.9832 Y3.9369 I-0.0202 J0.1234
G3 X1.1642 Y4.0406 I-0.17 J0.5065
G3 X1.2917 Y4.2057 I-0.3512 J0.403
G3 X1.3463 Y4.4071 I-0.4787 J0.2379
G3 X1.3475 Y4.4436 I-0.5331 J0.0366
G3 X1.3197 Y4.6139 I-0.5344 J0
G2 X1.2023 Y5.017 I4.882 J1.6409
G2 X1.1179 Y5.4287 I5.0109 J1.2407
G2 X1.0673 Y5.8459 I5.1222 J0.8333
G2 X1.0503 Y6.2697 I5.2685 J0.4239
G2 X1.1538 Y7.3035 I5.2113 J0
G2 X1.459 Y8.2891 I5.0381 J-1.0197
G2 X1.9348 Y9.166 I4.7712 J-2.0215
G2 X2.5731 Y9.9402 I4.3432 J-2.9306
G2 X2.6382 Y10.0042 I3.7048 J-3.7048
G1 Z-0.25 F30
G2 X3.0139 Y10.3339 I3.6397 J-3.7688 F30
G1 Z-0.3 F30
G2 X3.3473 Y10.5785 I3.264 J-4.0985 F30
G2 X4.2242 Y11.0544 I2.8984 J-4.2953
G2 X5.2098 Y11.3595 I2.0053 J-4.7329
G2 X6.2436 Y11.4631 I1.0338 J-5.1078
G2 X7.1567 Y11.3829 I0 J-5.242
G2 X8.0329 Y11.1466 I-0.8953 J-5.0609
G2 X8.8512 Y10.7613 I-1.7708 J-4.823
G2 X9.5079 Y10.3075 I-2.6317 J-4.5107
G1 X5.5828 Y4.732
G1 X6.9912 Y10.6469
G3 X7.0058 Y10.7709 I-0.5195 J0.124
G3 X7.0024 Y10.8316 I-0.5341 J0
G3 X6.9498 Y11.0091 I-0.5309 J-0.0608
G3 X6.8399 Y11.158 I-0.4787 J-0.2384
G3 X6.6856 Y11.2606 I-0.3689 J-0.3875
G3 X6.5057 Y11.3042 I-0.2144 J-0.4912
G3 X6.3218 Y11.2841 I-0.0345 J-0.534
G3 X6.1558 Y11.2024 I0.1492 J-0.5132
G3 X6.0276 Y11.0691 I0.315 J-0.4311
G1 Z-0.4 F30
G1 X5.2375 Y9.8943 F30
G1 Z-0.25 F30
G1 X4.9585 Y9.4793 F30
G1 Z-0.4 F30
G1 X0.5551 Y2.9315 F30
G3 X0.4747 Y2.739 I0.4435 J-0.2984
G3 X0.4641 Y2.6331 I0.5239 J-0.1059
G3 X0.474 Y2.5304 I0.5345 J0
G3 X0.5533 Y2.3374 I0.5245 J0.1026
G3 X0.7003 Y2.1895 I0.4451 J0.2956
G3 X0.8928 Y2.1091 I0.2984 J0.4435
G3 X1.1014 Y2.1084 I0.1059 J0.5238
G3 X1.2943 Y2.1877 I-0.1027 J0.5245
G3 X1.4098 Y2.2914 I-0.2958 J0.4456
G3 X1.9173 Y1.7433 I4.8746 J4.0041
G1 Z-0.25 F30
G3 X2.2914 Y1.4119 I4.3671 J4.5522 F30
G1 Z-0.4 F30
G3 X2.2979 Y1.4066 I3.993 J4.8837 F30
G3 X3.4858 Y0.6448 I3.9256 J4.8142
G3 X4.8223 Y0.1693 I2.7339 J5.5683
G3 X6.2435 Y0.0071 I1.4212 J6.147
G3 X7.2037 Y0.0802 I0 J6.3484
G3 X8.1306 Y0.2959 I-0.9374 J6.1264
G3 X9.0138 Y0.6513 I-1.8605 J5.8983
G3 X9.1682 Y0.7304 I-2.7891 J5.6348
G1 Z-0.25 F30
G3 X9.6002 Y0.9818 I-2.9435 J5.5557 F30
G1 Z-0.4 F30
G3 X9.8388 Y1.1414 I-3.3755 J5.3043 F30
G3 X9.9828 Y1.2922 I-0.307 J0.4374
G3 X10.0582 Y1.4867 I-0.451 J0.2865
G3 X10.0662 Y1.5788 I-0.5265 J0.0921
G3 X10.0534 Y1.6952 I-0.5345 J0
G3 X9.9691 Y1.8859 I-0.5221 J-0.1165
G3 X9.8183 Y2.0301 I-0.4374 J-0.3068
G3 X9.6237 Y2.1055 I-0.2867 J-0.4511
G3 X9.4152 Y2.1007 I-0.0922 J-0.5267
G3 X9.2244 Y2.0164 I0.1163 J-0.5215
G2 X8.5402 Y1.6101 I-2.9977 J4.2689
G2 X7.8085 Y1.3157 I-2.274 J4.5953
G2 X7.0401 Y1.1369 I-1.5455 J4.8997
G2 X6.2435 Y1.0763 I-0.7967 J5.2063
G2 X5.0016 Y1.2257 I0 J5.2348
G2 X3.8419 Y1.6627 I1.2195 J4.994
G2 X2.8228 Y2.3621 I2.3834 J4.565
G2 X2.0397 Y3.2231 I3.4716 J3.9441
G1 X2.5177 Y3.9339
G1 Z-0.25 F30
G1 X2.7967 Y4.3488 F30
G1 Z-0.4 F30
G1 X5.267 Y8.0221 F30
G1 X4.416 Y4.4485
G1 Z-0.25 F30
G1 X4.3002 Y3.9621 F30
G1 Z-0.4 F30
G1 X3.8979 Y2.2725 F30
G3 X3.8833 Y2.1488 I0.5197 J-0.1238
G3 X3.8867 Y2.0893 I0.5342 J0
G3 X3.9382 Y1.9129 I0.5313 J0.0596
G3 X4.0462 Y1.7645 I0.4803 J0.2361
G3 X4.1981 Y1.6613 I0.3726 J0.3849
G3 X4.2232 Y1.653 I0.0515 J0.1139
G1 X4.3914 Y1.6167
G3 X4.4178 Y1.6139 I0.0264 J0.1222
G3 X4.5431 Y1.6288 I0 J0.5348
G3 X4.6614 Y1.6726 I-0.1255 J0.5206
G3 X4.7685 Y1.745 I-0.2426 J0.4744
G3 X4.8551 Y1.841 I-0.3515 J0.4042
G1 X8.0981 Y6.4476
G3 X7.9907 Y6.0141 I10.3732 J-2.8021
G3 X7.8731 Y5.3942 I8.8428 J-1.9984
G3 X7.8153 Y4.8732 I6.1465 J-0.9456
G3 X7.8035 Y4.5288 I5.033 J-0.3444
G3 X7.8087 Y4.2985 I5.0447 J0
G3 X7.8478 Y3.9222 I3.2823 J0.15
G1 Z-0.25 F30
G3 X7.8632 Y3.8347 I3.2433 J0.5263 F30
G3 X7.9709 Y3.4383 I2.6076 J0.4959
G1 Z-0.4 F30
G3 X8.0046 Y3.3488 I2.4999 J0.8922 F30
G3 X8.2098 Y2.9663 I1.78 J0.7086
G3 X8.4179 Y2.7153 I1.5602 J1.0811
G3 X8.6601 Y2.5095 I1.2799 J1.261
G3 X8.9338 Y2.3492 I1.0677 J1.5091
G3 X9.2525 Y2.2274 I0.9284 J1.9521
G3 X9.5846 Y2.1545 I0.6884 J2.3417
G3 X9.9737 Y2.1207 I0.4764 J3.2285
G3 X10.3632 Y2.13 I0.1027 J3.8382
G3 X10.8179 Y2.1837 I-0.3996 J5.3344
G3 X10.9135 Y2.2085 I-0.0859 J0.5288
G3 X11.0028 Y2.2503 I-0.1811 J0.5031
G3 X11.0829 Y2.3078 I-0.2703 J0.4611
G3 X11.1511 Y2.3791 I-0.3507 J0.4039
G3 X11.7377 Y3.2593 I-4.9868 J3.9588
G3 X12.1611 Y4.2076 I-5.3685 J2.9654
G3 X12.4185 Y5.2137 I-5.7983 J2.0194
G3 X12.5062 Y6.2699 I-6.3119 J1.0561
G3 X12.4425 Y7.1639 I-6.3101 J0
G3 X12.2536 Y8.0348 I-6.1727 J-0.8835
G3 X11.9423 Y8.8698 I-5.9709 J-1.7506
G3 X11.9055 Y8.9488 I-5.6817 J-2.5957
G1 Z-0.25 F30
G3 X11.6735 Y9.3916 I-5.6449 J-2.6747 F30
G1 Z-0.4 F30
G3 X11.5142 Y9.6532 I-5.413 J-3.1175 F30
G3 X11.3694 Y9.8033 I-0.4496 J-0.2888
G3 X11.1781 Y9.8866 I-0.3048 J-0.439
G3 X10.9695 Y9.8902 I-0.1135 J-0.5224
G3 X10.7754 Y9.8138 I0.0951 J-0.5262
G3 X10.6253 Y9.669 I0.2887 J-0.4495
G3 X10.5421 Y9.4777 I0.4392 J-0.3049
G3 X10.5299 Y9.3641 I0.5225 J-0.1135
G3 X10.5384 Y9.269 I0.5347 J0
G3 X10.6148 Y9.075 I0.5257 J0.095
G2 X10.9696 Y8.4256 I-4.3537 J-2.7999
G2 X11.2276 Y7.7335 I-4.691 J-2.1426
G2 X11.3841 Y7.0116 I-4.9612 J-1.4541
G2 X11.4369 Y6.2699 I-5.1846 J-0.7417
G2 X11.3704 Y5.4311 I-5.3193 J0
G2 X11.1754 Y4.6318 I-5.0287 J0.8029
G2 X11.0172 Y4.2163 I-4.8188 J1.5974
G1 Z-0.25 F30
G2 X10.8545 Y3.875 I-4.6606 J2.0129 F30
G2 X10.7967 Y3.7677 I-4.6438 J2.4305
G1 Z-0.4 F30
G2 X10.4409 Y3.2108 I-4.5861 J2.5378 F30
G2 X10.2189 Y3.1923 I-0.4275 J3.7888
G2 X9.9927 Y3.1899 I-0.1404 J2.601
G2 X9.7702 Y3.209 I0.0704 J2.1332
G2 X9.5928 Y3.245 I0.1975 J1.4252
G2 X9.4256 Y3.3038 I0.3098 J1.1485
G2 X9.2947 Y3.3751 I0.3488 J0.7968
G2 X9.1806 Y3.467 I0.4308 J0.6515
G2 X9.089 Y3.5752 I0.5141 J0.5279
G2 X8.9792 Y3.7868 I0.7712 J0.5345
G2 X8.8971 Y4.1034 I1.5741 J0.577
G2 X8.8695 Y4.4198 I2.2793 J0.3582
G2 X8.8689 Y4.494 I4.0879 J0.0742
G2 X8.8842 Y4.8471 I4.0886 J0
G2 X8.9346 Y5.2491 I5.2717 J-0.457
G2 X9.0323 Y5.747 I8.1228 J-1.3363
G2 X9.1496 Y6.209 I9.7197 J-2.2216
G2 X9.3115 Y6.7459 I13.2501 J-3.703
G2 X9.6112 Y7.5928 I15.9014 J-5.1512
G1 Z-0.25 F30
G2 X9.6576 Y7.712 I15.6017 J-5.9981 F30
G2 X9.7965 Y8.0572 I21.5947 J-8.4923
G1 Z-0.4 F30
G2 X10.1298 Y8.8264 I21.4557 J-8.8375 F30
G2 X10.601 Y9.8049 I22.4763 J-10.2225
G2 X11.0691 Y10.6718 I18.1292 J-9.2281
G3 X11.1345 Y10.8634 I-0.4638 J0.2651
G3 X11.1396 Y10.9371 I-0.5296 J0.0737
G3 X11.1239 Y11.0656 I-0.5347 J0
G3 X11.0389 Y11.2493 I-0.5192 J-0.1285
G3 X10.8918 Y11.3883 I-0.434 J-0.3121
G3 X10.7035 Y11.4626 I-0.287 J-0.4512
G3 X10.501 Y11.4616 I-0.0986 J-0.525
G3 X10.3135 Y11.3854 I0.1039 J-0.5241
G3 X10.1678 Y11.2448 I0.2917 J-0.4483
G1 X10.1245 Y11.1834
G3 X9.3408 Y11.7132 I-3.9069 J-4.9339
G3 X8.367 Y12.163 I-3.0766 J-5.3822
G3 X7.3262 Y12.4389 I-2.1034 J-5.8338
G3 X6.4472 Y12.5291 I-1.0826 J-6.2245
G1 Z-0.25 F30
G3 X6.2436 Y12.5323 I-0.2035 J-6.3147 F30
G3 X5.9473 Y12.5253 I0 J-6.2833
G1 Z-0.4 F30
G3 X4.9971 Y12.4075 I0.2963 J-6.2763 F30
G3 X3.8081 Y12.0394 I1.2302 J-6.0781
G3 X2.7506 Y11.4655 I2.4379 J-5.7541
G3 X1.8173 Y10.6961 I3.5327 J-5.2354
G3 X1.0479 Y9.7628 I4.4659 J-4.466
G3 X0.474 Y8.7053 I5.1801 J-3.4955
G3 X0.1059 Y7.5162 I5.7099 J-2.4193
G3 X-0.019 Y6.2697 I6.1585 J-1.2465
G3 X0.0015 Y5.7594 I6.3532 J0
G3 X0.0382 Y5.4204 I6.2357 J0.5025
G1 Z-0.25 F30
G3 X0.0627 Y5.2562 I6.199 J0.8415 F30
G3 X0.1252 Y4.9282 I6.1492 J1.0016
G1 Z-0.4 F30
G3 X0.1644 Y4.7598 I6.0868 J1.3296 F30
G3 X0.3061 Y4.2734 I6.0437 J1.4971
G3 X0.384 Y4.1245 I0.5071 J0.1702
G3 X0.504 Y4.0073 I0.4272 J0.3176
G3 X0.651 Y3.9342 I0.3099 J0.4387
G3 X0.8128 Y3.909 I0.1618 J0.5083
G3 X0.8331 Y3.9107 I0 J0.125
G1 X0.9637 Y3.9321
G3 X0.9832 Y3.9369 I-0.0202 J0.1234
G3 X1.1642 Y4.0406 I-0.17 J0.5065
G3 X1.2917 Y4.2057 I-0.3512 J0.403
G3 X1.3463 Y4.4071 I-0.4787 J0.2379
G3 X1.3475 Y4.4436 I-0.5331 J0.0366
G3 X1.3197 Y4.6139 I-0.5344 J0
G2 X1.2023 Y5.017 I4.882 J1.6409
G2 X1.1179 Y5.4287 I5.0109 J1.2407
G2 X1.0673 Y5.8459 I5.1222 J0.8333
G2 X1.0503 Y6.2697 I5.2685 J0.4239
G2 X1.1538 Y7.3035 I5.2113 J0
G2 X1.459 Y8.2891 I5.0381 J-1.0197
G2 X1.9348 Y9.166 I4.7712 J-2.0215
G2 X2.5731 Y9.9402 I4.3432 J-2.9306
G2 X2.6382 Y10.0042 I3.7048 J-3.7048
G1 Z-0.25 F30
G2 X3.0139 Y10.3339 I3.6397 J-3.7688 F30
G1 Z-0.4 F30
G2 X3.3473 Y10.5785 I3.264 J-4.0985 F30
G2 X4.2242 Y11.0544 I2.8984 J-4.2953
G2 X5.2098 Y11.3595 I2.0053 J-4.7329
G2 X6.2436 Y11.4631 I1.0338 J-5.1078
G2 X7.1567 Y11.3829 I0 J-5.242
G2 X8.0329 Y11.1466 I-0.8953 J-5.0609
G2 X8.8512 Y10.7613 I-1.7708 J-4.823
G2 X9.5079 Y10.3075 I-2.6317 J-4.5107
G1 X5.5828 Y4.732
G1 X6.9912 Y10.6469
G3 X7.0058 Y10.7709 I-0.5195 J0.124
G3 X7.0024 Y10.8316 I-0.5341 J0
G3 X6.9498 Y11.0091 I-0.5309 J-0.0608
G3 X6.8399 Y11.158 I-0.4787 J-0.2384
G3 X6.6856 Y11.2606 I-0.3689 J-0.3875
G3 X6.5057 Y11.3042 I-0.2144 J-0.4912
G3 X6.3218 Y11.2841 I-0.0345 J-0.534
G3 X6.1558 Y11.2024 I0.1492 J-0.5132
G3 X6.0276 Y11.0691 I0.315 J-0.4311
G1 Z-0.5 F30
G1 X5.2375 Y9.8943 F30
G1 Z-0.25 F30
G1 X4.9585 Y9.4793 F30
G1 Z-0.5 F30
G1 X0.5551 Y2.9315 F30
G3 X0.4747 Y2.739 I0.4435 J-0.2984
G3 X0.4641 Y2.6331 I0.5239 J-0.1059
G3 X0.474 Y2.5304 I0.5345 J0
G3 X0.5533 Y2.3374 I0.5245 J0.1026
G3 X0.7003 Y2.1895 I0.4451 J0.2956
G3 X0.8928 Y2.1091 I0.2984 J0.4435
G3 X1.1014 Y2.1084 I0.1059 J0.5238
G3 X1.2943 Y2.1877 I-0.1027 J0.5245
G3 X1.4098 Y2.2914 I-0.2958 J0.4456
G3 X1.9173 Y1.7433 I4.8746 J4.0041
G1 Z-0.25 F30
G3 X2.2914 Y1.4119 I4.3671 J4.5522 F30
G1 Z-0.5 F30
G3 X2.2979 Y1.4066 I3.993 J4.8837 F30
G3 X3.4858 Y0.6448 I3.9256 J4.8142
G3 X4.8223 Y0.1693 I2.7339 J5.5683
G3 X6.2435 Y0.0071 I1.4212 J6.147
G3 X7.2037 Y0.0802 I0 J6.3484
G3 X8.1306 Y0.2959 I-0.9374 J6.1264
G3 X9.0138 Y0.6513 I-1.8605 J5.8983
G3 X9.1682 Y0.7304 I-2.7891 J5.6348
G1 Z-0.25 F30
G3 X9.6002 Y0.9818 I-2.9435 J5.5557 F30
G1 Z-0.5 F30
G3 X9.8388 Y1.1414 I-3.3755 J5.3043 F30
G3 X9.9828 Y1.2922 I-0.307 J0.4374
G3 X10.0582 Y1.4867 I-0.451 J0.2865
G3 X10.0662 Y1.5788 I-0.5265 J0.0921
G3 X10.0534 Y1.6952 I-0.5345 J0
G3 X9.9691 Y1.8859 I-0.5221 J-0.1165
G3 X9.8183 Y2.0301 I-0.4374 J-0.3068
G3 X9.6237 Y2.1055 I-0.2867 J-0.4511
G3 X9.4152 Y2.1007 I-0.0922 J-0.5267
G3 X9.2244 Y2.0164 I0.1163 J-0.5215
G2 X8.5402 Y1.6101 I-2.9977 J4.2689
G2 X7.8085 Y1.3157 I-2.274 J4.5953
G2 X7.0401 Y1.1369 I-1.5455 J4.8997
G2 X6.2435 Y1.0763 I-0.7967 J5.2063
G2 X5.0016 Y1.2257 I0 J5.2348
G2 X3.8419 Y1.6627 I1.2195 J4.994
G2 X2.8228 Y2.3621 I2.3834 J4.565
G2 X2.0397 Y3.2231 I3.4716 J3.9441
G1 X2.5177 Y3.9339
G1 Z-0.25 F30
G1 X2.7967 Y4.3488 F30
G1 Z-0.5 F30
G1 X5.267 Y8.0221 F30
G1 X4.416 Y4.4485
G1 Z-0.25 F30
G1 X4.3002 Y3.9621 F30
G1 Z-0.5 F30
G1 X3.8979 Y2.2725 F30
G3 X3.8833 Y2.1488 I0.5197 J-0.1238
G3 X3.8867 Y2.0893 I0.5342 J0
G3 X3.9382 Y1.9129 I0.5313 J0.0596
G3 X4.0462 Y1.7645 I0.4803 J0.2361
G3 X4.1981 Y1.6613 I0.3726 J0.3849
G3 X4.2232 Y1.653 I0.0515 J0.1139
G1 X4.3914 Y1.6167
G3 X4.4178 Y1.6139 I0.0264 J0.1222
G3 X4.5431 Y1.6288 I0 J0.5348
G3 X4.6614 Y1.6726 I-0.1255 J0.5206
G3 X4.7685 Y1.745 I-0.2426 J0.4744
G3 X4.8551 Y1.841 I-0.3515 J0.4042
G1 X8.0981 Y6.4476
G3 X7.9907 Y6.0141 I10.3732 J-2.8021
G3 X7.8731 Y5.3942 I8.8428 J-1.9984
G3 X7.8153 Y4.8732 I6.1465 J-0.9456
G3 X7.8035 Y4.5288 I5.033 J-0.3444
G3 X7.8087 Y4.2985 I5.0447 J0
G3 X7.8478 Y3.9222 I3.2823 J0.15
G1 Z-0.25 F30
G3 X7.8632 Y3.8347 I3.2433 J0.5263 F30
G3 X7.9709 Y3.4383 I2.6076 J0.4959
G1 Z-0.5 F30
G3 X8.0046 Y3.3488 I2.4999 J0.8922 F30
G3 X8.2098 Y2.9663 I1.78 J0.7086
G3 X8.4179 Y2.7153 I1.5602 J1.0811
G3 X8.6601 Y2.5095 I1.2799 J1.261
G3 X8.9338 Y2.3492 I1.0677 J1.5091
G3 X9.2525 Y2.2274 I0.9284 J1.9521
G3 X9.5846 Y2.1545 I0.6884 J2.3417
G3 X9.9737 Y2.1207 I0.4764 J3.2285
G3 X10.3632 Y2.13 I0.1027 J3.8382
G3 X10.8179 Y2.1837 I-0.3996 J5.3344
G3 X10.9135 Y2.2085 I-0.0859 J0.5288
G3 X11.0028 Y2.2503 I-0.1811 J0.5031
G3 X11.0829 Y2.3078 I-0.2703 J0.4611
G3 X11.1511 Y2.3791 I-0.3507 J0.4039
G3 X11.7377 Y3.2593 I-4.9868 J3.9588
G3 X12.1611 Y4.2076 I-5.3685 J2.9654
G3 X12.4185 Y5.2137 I-5.7983 J2.0194
G3 X12.5062 Y6.2699 I-6.3119 J1.0561
G3 X12.4425 Y7.1639 I-6.3101 J0
G3 X12.2536 Y8.0348 I-6.1727 J-0.8835
G3 X11.9423 Y8.8698 I-5.9709 J-1.7506
G3 X11.9055 Y8.9488 I-5.6817 J-2.5957
G1 Z-0.25 F30
G3 X11.6735 Y9.3916 I-5.6449 J-2.6747 F30
G1 Z-0.5 F30
G3 X11.5142 Y9.6532 I-5.413 J-3.1175 F30
G3 X11.3694 Y9.8033 I-0.4496 J-0.2888
G3 X11.1781 Y9.8866 I-0.3048 J-0.439
G3 X10.9695 Y9.8902 I-0.1135 J-0.5224
G3 X10.7754 Y9.8138 I0.0951 J-0.5262
G3 X10.6253 Y9.669 I0.2887 J-0.4495
G3 X10.5421 Y9.4777 I0.4392 J-0.3049
G3 X10.5299 Y9.3641 I0.5225 J-0.1135
G3 X10.5384 Y9.269 I0.5347 J0
G3 X10.6148 Y9.075 I0.5257 J0.095
G2 X10.9696 Y8.4256 I-4.3537 J-2.7999
G2 X11.2276 Y7.7335 I-4.691 J-2.1426
G2 X11.3841 Y7.0116 I-4.9612 J-1.4541
G2 X11.4369 Y6.2699 I-5.1846 J-0.7417
G2 X11.3704 Y5.4311 I-5.3193 J0
G2 X11.1754 Y4.6318 I-5.0287 J0.8029
G2 X11.0172 Y4.2163 I-4.8188 J1.5974
G1 Z-0.25 F30
G2 X10.8545 Y3.875 I-4.6606 J2.0129 F30
G2 X10.7967 Y3.7677 I-4.6438 J2.4305
G1 Z-0.5 F30
G2 X10.4409 Y3.2108 I-4.5861 J2.5378 F30
G2 X10.2189 Y3.1923 I-0.4275 J3.7888
G2 X9.9927 Y3.1899 I-0.1404 J2.601
G2 X9.7702 Y3.209 I0.0704 J2.1332
G2 X9.5928 Y3.245 I0.1975 J1.4252
G2 X9.4256 Y3.3038 I0.3098 J1.1485
G2 X9.2947 Y3.3751 I0.3488 J0.7968
G2 X9.1806 Y3.467 I0.4308 J0.6515
G2 X9.089 Y3.5752 I0.5141 J0.5279
G2 X8.9792 Y3.7868 I0.7712 J0.5345
G2 X8.8971 Y4.1034 I1.5741 J0.577
G2 X8.8695 Y4.4198 I2.2793 J0.3582
G2 X8.8689 Y4.494 I4.0879 J0.0742
G2 X8.8842 Y4.8471 I4.0886 J0
G2 X8.9346 Y5.2491 I5.2717 J-0.457
G2 X9.0323 Y5.747 I8.1228 J-1.3363
G2 X9.1496 Y6.209 I9.7197 J-2.2216
G2 X9.3115 Y6.7459 I13.2501 J-3.703
G2 X9.6112 Y7.5928 I15.9014 J-5.1512
G1 Z-0.25 F30
G2 X9.6576 Y7.712 I15.6017 J-5.9981 F30
G2 X9.7965 Y8.0572 I21.5947 J-8.4923
G1 Z-0.5 F30
G2 X10.1298 Y8.8264 I21.4557 J-8.8375 F30
G2 X10.601 Y9.8049 I22.4763 J-10.2225
G2 X11.0691 Y10.6718 I18.1292 J-9.2281
G3 X11.1345 Y10.8634 I-0.4638 J0.2651
G3 X11.1396 Y10.9371 I-0.5296 J0.0737
G3 X11.1239 Y11.0656 I-0.5347 J0
G3 X11.0389 Y11.2493 I-0.5192 J-0.1285
G3 X10.8918 Y11.3883 I-0.434 J-0.3121
G3 X10.7035 Y11.4626 I-0.287 J-0.4512
G3 X10.501 Y11.4616 I-0.0986 J-0.525
G3 X10.3135 Y11.3854 I0.1039 J-0.5241
G3 X10.1678 Y11.2448 I0.2917 J-0.4483
G1 X10.1245 Y11.1834
G3 X9.3408 Y11.7132 I-3.9069 J-4.9339
G3 X8.367 Y12.163 I-3.0766 J-5.3822
G3 X7.3262 Y12.4389 I-2.1034 J-5.8338
G3 X6.4472 Y12.5291 I-1.0826 J-6.2245
G1 Z-0.25 F30
G3 X6.2436 Y12.5323 I-0.2035 J-6.3147 F30
G3 X5.9473 Y12.5253 I0 J-6.2833
G1 Z-0.5 F30
G3 X4.9971 Y12.4075 I0.2963 J-6.2763 F30
G3 X3.8081 Y12.0394 I1.2302 J-6.0781
G3 X2.7506 Y11.4655 I2.4379 J-5.7541
G3 X1.8173 Y10.6961 I3.5327 J-5.2354
G3 X1.0479 Y9.7628 I4.4659 J-4.466
G3 X0.474 Y8.7053 I5.1801 J-3.4955
G3 X0.1059 Y7.5162 I5.7099 J-2.4193
G3 X-0.019 Y6.2697 I6.1585 J-1.2465
G3 X0.0015 Y5.7594 I6.3532 J0
G3 X0.0382 Y5.4204 I6.2357 J0.5025
G1 Z-0.25 F30
G3 X0.0627 Y5.2562 I6.199 J0.8415 F30
G3 X0.1252 Y4.9282 I6.1492 J1.0016
G1 Z-0.5 F30
G3 X0.1644 Y4.7598 I6.0868 J1.3296 F30
G3 X0.3061 Y4.2734 I6.0437 J1.4971
G3 X0.384 Y4.1245 I0.5071 J0.1702
G3 X0.504 Y4.0073 I0.4272 J0.3176
G3 X0.651 Y3.9342 I0.3099 J0.4387
G3 X0.8128 Y3.909 I0.1618 J0.5083
G3 X0.8331 Y3.9107 I0 J0.125
G1 X0.9637 Y3.9321
G3 X0.9832 Y3.9369 I-0.0202 J0.1234
G3 X1.1642 Y4.0406 I-0.17 J0.5065
G3 X1.2917 Y4.2057 I-0.3512 J0.403
G3 X1.3463 Y4.4071 I-0.4787 J0.2379
G3 X1.3475 Y4.4436 I-0.5331 J0.0366
G3 X1.3197 Y4.6139 I-0.5344 J0
G2 X1.2023 Y5.017 I4.882 J1.6409
G2 X1.1179 Y5.4287 I5.0109 J1.2407
G2 X1.0673 Y5.8459 I5.1222 J0.8333
G2 X1.0503 Y6.2697 I5.2685 J0.4239
G2 X1.1538 Y7.3035 I5.2113 J0
G2 X1.459 Y8.2891 I5.0381 J-1.0197
G2 X1.9348 Y9.166 I4.7712 J-2.0215
G2 X2.5731 Y9.9402 I4.3432 J-2.9306
G2 X2.6382 Y10.0042 I3.7048 J-3.7048
G1 Z-0.25 F30
G2 X3.0139 Y10.3339 I3.6397 J-3.7688 F30
G1 Z-0.5 F30
G2 X3.3473 Y10.5785 I3.264 J-4.0985 F30
G2 X4.2242 Y11.0544 I2.8984 J-4.2953
G2 X5.2098 Y11.3595 I2.0053 J-4.7329
G2 X6.2436 Y11.4631 I1.0338 J-5.1078
G2 X7.1567 Y11.3829 I0 J-5.242
G2 X8.0329 Y11.1466 I-0.8953 J-5.0609
G2 X8.8512 Y10.7613 I-1.7708 J-4.823
G2 X9.5079 Y10.3075 I-2.6317 J-4.5107
G1 X5.5828 Y4.732
G1 X6.9912 Y10.6469
G3 X7.0058 Y10.7709 I-0.5195 J0.124
G3 X7.0024 Y10.8316 I-0.5341 J0
G3 X6.9498 Y11.0091 I-0.5309 J-0.0608
G3 X6.8399 Y11.158 I-0.4787 J-0.2384
G3 X6.6856 Y11.2606 I-0.3689 J-0.3875
G3 X6.5057 Y11.3042 I-0.2144 J-0.4912
G3 X6.3218 Y11.2841 I-0.0345 J-0.534
G3 X6.1558 Y11.2024 I0.1492 J-0.5132
G3 X6.0276 Y11.0691 I0.315 J-0.4311
G0 Z0.15
M5
M30
